src/components/00-materials/images-raw/Hotel Bed.svg

<svg width="96" height="96" viewBox="0 0 96 96" fill="none" xmlns="http://www.w3.org/2000/svg">
<path d="M81.33 67.5499H88M81.33 67.5499V79.0999C81.33 79.6303 81.5407 80.139 81.9158 80.5141C82.2909 80.8892 82.7996 81.0999 83.33 81.0999H86C86.5304 81.0999 87.0391 80.8892 87.4142 80.5141C87.7893 80.139 88 79.6303 88 79.0999V67.5499M81.33 67.5499H14.67M88 67.5499V60.7699M88 60.7699H14.67M88 60.7699C88 54.7099 85.61 46.9099 77.07 45.7099L46.58 44.3799M14.8 38.9199C22.31 38.9199 29.64 41.0799 32.96 44.5099M14.8 49.8499H34M11 26.8999H11.67C12.4656 26.8999 13.2287 27.216 13.7913 27.7786C14.3539 28.3412 14.67 29.1043 14.67 29.8999V79.0999C14.67 79.6303 14.4593 80.139 14.0842 80.5141C13.7091 80.8892 13.2004 81.0999 12.67 81.0999H10C9.46957 81.0999 8.96086 80.8892 8.58579 80.5141C8.21071 80.139 8 79.6303 8 79.0999V29.8999C8 29.1043 8.31607 28.3412 8.87868 27.7786C9.44129 27.216 10.2044 26.8999 11 26.8999Z" stroke="#00008F" stroke-width="2" stroke-linecap="round" stroke-linejoin="round"/>
<path d="M26.89 37.2698C26.8519 37.9875 26.9593 38.7055 27.2058 39.3806C27.4522 40.0558 27.8327 40.6741 28.3243 41.1984C28.8159 41.7227 29.4084 42.1421 30.0663 42.4315C30.7242 42.7209 31.4338 42.8743 32.1525 42.8824C32.8711 42.8905 33.584 42.7531 34.2482 42.4786C34.9124 42.2041 35.5143 41.7981 36.0176 41.285C36.5208 40.772 36.9152 40.1624 37.1768 39.493C37.4384 38.8236 37.562 38.1082 37.54 37.3898C37.5348 35.9928 36.9782 34.6544 35.9913 33.6656C35.0044 32.6769 33.667 32.1177 32.27 32.1098C31.579 32.0831 30.8896 32.195 30.2425 32.4389C29.5954 32.6828 29.0037 33.0539 28.5022 33.5301C28.0008 34.0064 27.5998 34.5782 27.3229 35.2119C27.046 35.8456 26.8988 36.5283 26.89 37.2198V37.2698ZM52.71 49.8298L34 49.8498C33.8471 49.8657 33.6929 49.8657 33.54 49.8498C32.8188 49.7182 32.1788 49.3071 31.7593 48.7059C31.3398 48.1047 31.1747 47.3621 31.3 46.6398C31.4229 45.9941 31.7772 45.4153 32.2963 45.0122C32.8155 44.609 33.4639 44.409 34.12 44.4498L46.62 44.3798L52.71 49.8298Z" stroke="#00008F" stroke-width="2" stroke-linecap="round" stroke-linejoin="round"/>
<path d="M46.58 44.38C46.58 44.38 43.27 40 39.57 40C36.5 40 34.41 41.85 34.08 44.31" stroke="#00008F" stroke-width="2" stroke-linecap="round" stroke-linejoin="round"/>
</svg>

<svg width="96" height="96" viewBox="0 0 96 96" fill="none" xmlns="http://www.w3.org/2000/svg"><path d="M81.33 67.55H88m-6.67 0V79.1a2 2 0 002 2H86a2 2 0 002-2V67.55m-6.67 0H14.67m73.33 0v-6.78m0 0H14.67m73.33 0c0-6.06-2.39-13.86-10.93-15.06l-30.49-1.33M14.8 38.92c7.51 0 14.84 2.16 18.16 5.59M14.8 49.85H34M11 26.9h.67a3 3 0 013 3v49.2a2 2 0 01-2 2H10a2 2 0 01-2-2V29.9a3 3 0 013-3z" stroke="#00008F" stroke-width="2" stroke-linecap="round" stroke-linejoin="round"/><path d="M26.89 37.27a5.33 5.33 0 1010.65.12 5.3 5.3 0 00-5.27-5.28 5.181 5.181 0 00-5.38 5.11v.05zm25.82 12.56L34 49.85a2.224 2.224 0 01-.46 0 2.78 2.78 0 01-2.24-3.21 2.7 2.7 0 012.82-2.19l12.5-.07 6.09 5.45z" stroke="#00008F" stroke-width="2" stroke-linecap="round" stroke-linejoin="round"/><path d="M46.58 44.38S43.27 40 39.57 40c-3.07 0-5.16 1.85-5.49 4.31" stroke="#00008F" stroke-width="2" stroke-linecap="round" stroke-linejoin="round"/></svg>
